X:41
T:Nong Tong Paw. WCa.41
M:6/8
L:1/8
Q:3/8=120
S:Wm. Calvert MS, 1812, Leyburn, Yorks.
R:.jig
O:England
A:North Yorkshire
Z:vmp.Chris Partington, May 2003
K:D
“_Key G in MS”a|f2ff2e|d2dd2c|Bcd e2d|c2BA2a|!
f2ff2e|d2dd2c|Bcd edc|d3D2:|!
|:a|f2af2a|gfge2a|f2af2a|gfge2a|!
f2ff2e|d2dd2c|Bcd edc|d3D2:|

